X:1
T:Neun Gesänge
T:Gebet
T:Franz Lachner
T:Emanuel Geibel
T:Gebet
T:No. 5 aus Neun Gesänge, Op. 169
T:Creative Commons Attribution Non Commercial 3.0
T:Creative Commons Attribution Non Commercial 3.0
T:Creative Commons Attribution Non Commercial 3.0
T:Creative Commons Attribution Non Commercial 3.0
T:Creative Commons Attribution Non Commercial 3.0
T:Creative Commons Attribution Non Commercial 3.0
T:Creative Commons Attribution Non Commercial 3.0
T:Creative Commons Attribution Non Commercial 3.0
C:Franz Lachner
Z:Emanuel Geibel
Z:Creative Commons Attribution Non Commercial 3.0
%%score [ 1 2 3 4 ]
L:1/8
Q:1/4=72
M:2/2
K:Bb
V:1 treble nm="Sopran"
V:2 treble nm="Alt"
V:3 treble-8 nm="Tenor"
V:4 bass nm="Bass"
V:1
!p!"^Andante con moto" D4 z4 | F4 F2 F2 |!<(! B2 c2 d2!<)! c2 |!>(! (B3 c)!>)! A2 z2 | %4
w: Herr,|Herr, den ich|tief im Her- zen|tra- * ge,|
!p!!<(! _A4 G3!<)! G | c4 z4 |!f! G4 e3 d | c4 z2!p! c2 | d6 c2 | B2 A2 G2 B2 | A8 | A4 z4 | %12
w: sei du mit|mir,|sei du mit|mir, du|Gna- den-|hort in Glück und|Pla-|ge,|
 A4"^cresc." B3 G | c4 z4 |!f! c4 e3 A | B4 z2!p! d2 | d4 (e2 c2) | B4 F2 FF | F4 =E2 c2 | %19
w: sei du mit|mir,|sei du mit|mir, im|Brand des _|Som- mers, der dem|Man- ne die|
 !>!d3 c c2 ^c2 |"^cresc." d2 d2 e2 dc |!>(! B3!>)! F F2 z2 |!p! G4!<(! A3 e!<)! | d2 z2!f! f4- | %24
w: Wan- ge bräunt, wie|in der Ju- gend *|Ro- sen- hain,|sei du mit|mir, sei|
 f4 e3 c | B4 z2!p! F2 | F6 _d2 | c6 c2 |!<(! c2 B2 f2!<)! _e_d |!>(! _d3 c c2!>)! z2 | %30
w: _ du mit|mir, be-|hü- te|mich am|Born der Freu- de vor|Ü- ber- mut,|
 z2"^cresc." f2 e2 _d2 | (_d2 c2) B2 _A2 | (_A2 Bc) _d2 ef | f3 _g e2 z2 |!f! f4 _g3 c | _d4 z4 | %36
w: wenn ich an|mir _ selbst, an|mir _ _ selbst ver- *|za- * ge,|sei du mit|mir,|
!p! B4 c3 e | _d4 z4 |!mf! _A4 c3 e | _d6 d2 | _g6 f2 | (f2 =e2) e2 e2 | f6 c2 | _d4 !>!d4 | %44
w: sei du mit|mir.|Gib dei- nen|Geist zu|mei- nem|Lie- * de, dass|rein es|sei, dass|
!p! (B3 _A) (_G2 F2) | E4 z2!mf! _A2 | _A4 (c3 e) | _d6 d2 | _g6 f2 | (f2 =e2) e2!f! e2 | f6 c2 | %51
w: rein _ es _|sei, und|dass kein _|Wort mich|einst ver-|kla- * ge, sei|du mit|
 _d4 z2 d2 | (c3 B) (A3 B) | c4 z2!p! c2 | c4 c4 | c4 c4 | _e4 (c3 B) |!>(! B4!>)! A2 e2- | %58
w: mir, sei|du _ mit _|mir, dein|Se- gen|ist wie|Tau den _|Re- ben. Nichts|
!>(! e4!>)! c3 B | A4 z4 | z8 | z4!f! f4- | f4 _g2 e2 | _d4 _A4 | (_A2 _d2 c2) _g2 | _g4 f4 | %66
w: _ kann ich|selbst,||doch|_ dass ich|kühn das|Höchs- * * te|wa- ge|
!ff! f4 _g2 e2 | _d4 c4 | B4 (_A2 _G2) | !fermata!F8 |!p! d4 e2 c2 | B4 z2 F2 | F4 (=E2 c2) | %73
w: sei du mit|mir, sei|du mit _|mir.|O du mein|Trost, du|mei- ne _|
 c4 F2"^cresc." F2 | (d2 f2 e2) dc | B2 z!f! d d2 d2 | d2 f2 =e2 d^c | d4 A!ff!ddd | %78
w: Stär- ke, mein|Won- * * ne- *|licht, bis an das|En- de mei- ner _|Ta- ge, bis an das|
 d2 f2 f=e d^c | =e4 d2 z2 |!p!!<(! G4 A3!<)! _e | d2 z2!f! f4- | f4 e3 c | B4 z4 |!pp! F4 F2 F2 | %85
w: En- de mei- * ner _|Ta- ge|sei du mit|mir, sei|_ du mit|mir.|O du mein|
 F4 F4 | F6 F2 |!<(! F2 F2 F2 G2!<)! |!f! _A3 G F2 A2 |!>(! _A4!>)! G2 z2 |!f! e4 d3 c | %91
w: Trost, mein|Won- ne-|licht, bis an das|En- de mei- ner|Ta- ge|sei du mit|
 B4!>(! B4-!>)! |!p! B8 |!pp! D4 (F2 E2) | D2 z2 z4 | D4 D3 D |"^<>" !fermata!D8 |] %97
w: mir, sei|_|du mit _|mir,|sei du mit|mir.|
V:2
!p! B,4 z4 | D4 D2 F2 |!<(! F2 F2 F2!<)! F2 |!>(! F4!>)! F2 z2 |!p!!<(! D4 D3!<)! D | G4 z4 | %6
w: ||||||
!f! E4 G3 G | A4 z2!p! A2 | A6 A2 | G2 ^F2 D2 G2 | (=E4 G3 ^F) | ^F4 z4 | ^F4"^cresc." G3 D | %13
w: |||||||
 A4 z4 |!f! G4 G3 E | D4 z2!p! B2 | (B2 A2 G2) FE | D4 D2 DD | (D2 C2) C2 =E2 | !>!_E3 E E2 E2 | %20
w: |||||||
"^cresc." D2 BA G2 FE |!>(! D3!>)! D D2!p! F2- | F4!<(! E3 C!<)! | B,2 z2!f! d4- | d4 c3 A | %25
w: |* * * sei|_ du mit|mir, *||
 F4 z4 | z2!p! F2 F2 F2 | E6 E2 |!<(! E2 _D2 F2!<)! FF |!>(! F3 F F2!>)! z2 | %30
w: |be- hü- te|mich *|||
 z2"^cresc." F2 F2 _A2 | _G6 G2 | (_G2 F2) _A2 GF | (F2 _D2) _A2 z2 |!f! _A4 A3 A | %35
w: |||||
 _A4!>(! A4-!>)! |!p! A4 _G3 G | F4 z4 |!mf! F4 _A3 _G | F2 F2 (3(F2 _A2) _c2 | B2 B2 B2 _A2 | %41
w: * sei|_ du mit|mir,||* gib dei- * nen|Geist zu mei- nem|
 =G4 G4 | F4 =A3 c | B4 !>!B4 |!p! (_G3 F) (E2 _D2) | C4!<(! (_A2 _G2)!<)! |!mf! F4 (_A2 _G2) | %47
w: Lie- de,|dass rein es|sei, *||* und _|dass kein _|
 F4 (3(F2 _A2 _c2) | B6 _A2 | =G4 G2 z2 |!f! F4 =A3 c | B4 z2 F2 | =E4 E4 | F4 !>!F4 | %54
w: Wort mich _ _|einst ver-|kla- ge,|sei du mit|mir, sei|du mit|mir, dein|
!p! (F3 =E) (D3 E) | F4 =E4 | _E4 E4 |!>(! E4!>)! E2 z2 | z8 | z8 |!p! !>!G4 E3 D | C4 z4 | %62
w: Se- * gen _|ist wie|Tau den|Re- ben.|||Nichts kann ich|selbst,|
!f! C4 E2 _G2 | F4 F4 | (_A2 F2 E2) A2 | (_A2 Bc) _d4 |!ff! F4 _G2 E2 | _D4 C4 | B,4 (_A2 _G2) | %69
w: doch dass ich|kühn das||||||
 !fermata!F8 |!p! (B2 A2) G2 FE | D4 D4 | (D2 C4) D=E | F4 C2"^cresc." F2 | (B2 _A2 G2) FE | %75
w: |O _ du mein *|Trost, du|mei- * ne _|Stär- ke, *||
 D2 z!f! F G2 ^G2 | A2 A2 A2 A2 | A4 F!ff!FG^G | A2 A2 AG F=E | G4 F2 !>!F2- |!<(! F4 E3!<)! C | %81
w: ||||* * sei|_ du mit|
 B,2 z2!f! d4- | d4 c3 A | F4!pp! F4 | D4 (C2 E2) | D4 D4 | (D4 C2) E2 |!<(! D2 D2 D2 D2!<)! | %88
w: mir, sei|_ du mit|mir. O|du mein _|Trost, *|||
!f! D3 D D2 D2 |!>(! D4!>)! E2 z2 |!f! G4 A3 A | B4!>(! G4-!>)! |!p! G8 |!pp! D4 (D2 C2) | %94
w: ||||||
 B,2 z2 z4 | B,4 B,3 B, |"^<>" !fermata!B,8 |] %97
w: |||
V:3
!p! F4 z4 | B4 B2 c2 |!<(! d2 c2 B2!<)! c2 |!>(! d4!>)! c2 z2 |!p!!<(! =B4 B3!<)! B | c4 z4 | %6
w: Herr,|Herr, den ich|tief im Her- zen|tra- ge,|sei du mit|mir,|
!f! c4 e3 =e | f4 z2!p! _e2 | (d2 A2 d2){/f} ed | d2 c2 B2 d2 | (^c4 =e3 d) | d4 z4 | %12
w: sei du mit|mir, du|Gna- * * den- *|hort in Glück und|Pla- * *|ge,|
 d4"^cresc." d3 B | =f4!f! f4- | f4 e3 c | B4 z2!p! F2 | (F2 ^F2) (G2 A2) | B4 B2 BB | %18
w: sei du mit|mir, sei|_ du mit|mir, im|Brand * des _|Som- mers, der dem|
 (B2 A2) G2 B2 | !>!B3 A A2 A2 |"^cresc." B2 F^F G2 A2 |!>(! BAB!>)!c d2!p! d2- | d4!<(! c3 A!<)! | %23
w: Man- * ne die|Wan- ge bräunt, wie|in der _ Ju- gend|Ro- * * sen- hain, sei|_ du mit|
 F2 z2 z4 |!f! G4 A3 e | d4 z4 | z2!p! _d2 d2 B2 | (B2 A2) (G2 A2) |!<(! A2 B2 _d2!<)! cB | %29
w: mir,|sei du mit|mir,|be- hü- te|mich * am _|Born der Freu- de vor|
!>(! B3 A A2!>)! A2 |"^cresc." _A4 A2 f2 | e6 e2 | (e2 _d2) f2 ed | _d4 c2 z2 |!f! _A4 c3 e | %35
w: Ü- ber- mut, und|wenn ich an|mir, an|mir _ selbst ver- *|za- ge,|sei du mit|
 _d4 z4 |!p! f4 _g3 c | _d4 z4 |!mf! (_A2 f2) (3(e2 c2) A2 | _A6 F2 | (_G2 B2 _d2) d2 | _d4 c2 c2 | %42
w: mir,|sei du mit|mir.|Gib * dei- * nen|Geist zu|mei- * * nem|Lie- de, dass|
 c4 e4 | _d4 z4 | z8 | z4 z2!mf! _A2 |!mf! (_A2 f2 (3e2 c2) A2 | _A6 F2 | (_G2 B2) _d4 | %49
w: rein es|sei,||und|dass _ _ _ kein|Wort mich|einst _ ver-|
 _d4 c2 z2 |!f! c4 e3 e | _d4 z2 B2 | B4 B4 | A4 z2!p! A2 | A4 B4 | c4 B4 | A4 (A3 B) | %57
w: kla- ge,|sei du mit|mir, sei|du mit|mir, dein|Se- gen|ist wie|Tau den _|
!>(! c4!>)! c2 z2 |!>(! A4!>)! c3 d | e4!>(! e4-!>)! | e4 c3 B | A4 z4 |!f! c4 c2 c2 | _d4 z2 f2 | %64
w: Re- ben.|Nichts kann ich|selbst, nichts|_ kann ich|selbst,|doch dass ich|kühn das|
 (f4 _g2) e2 | _d4 _A4 |!ff! f4 _g2 e2 | _d4 c4 | B4 (_A2 _G2) | !fermata!F8 |!p! (F2 ^F2) G2 A2 | %71
w: Höchs- * te|wa- ge|sei du mit|mir, sei|du mit _|mir.|O _ du mein|
 B4 B4 | (B2 A2) (G2 B2) | A4 A2"^cresc." F2 | (f2 d2 e2) A2 | B2 z!f! d =e2 f2 | f2 d2 ^c2 =eg | %77
w: Trost, du|mei- * ne _|Stär- ke, mein|Won- * * ne-|licht, bis an das|En- de mei- ner _|
 f4 d!ff!d=ef | f2 d2 ^c2 d=e | ^c4 d2 !>!d2- |!<(! d4 =c3!<)! A | F2 z2 z4 |!f! G4 A3 e | d4 z4 | %84
w: Ta- ge, bis an das|En- de mei- ner _|Ta- ge sei|_ du mit|mir,|sei du mit|mir.|
!pp! B4 A2 A2 | B4 B4 | (B4 A2) A2 |!<(! B2 B2 B2 B2!<)! |!f! =B3 B B2 B2 |!>(! =B4!>)! c2 z2 | %90
w: O du mein|Trost, mein|Won- * ne-|licht, bis an das|En- de mei- ner|Ta- ge,|
!f! c4 A3 e | d4!>(! d4-!>)! |!p! d8 |!pp! (B2 A2) (G2 A2) | B2 z2 F4- | F4 F3 F | %96
w: sei du mit|mir, sei|_|du _ mit _|mir, sei|_ du mit|
"^<>" !fermata!F8 |] %97
w: mir.|
V:4
!p! B,,4 z4 | B,,4 B,2 A,2 |!<(! G,2 G,2 G,2!<)! G,2 |!>(! F,4!>)! F,2 z2 |!p!!<(! F,4 F,3!<)! F, | %5
w: |||||
 E,4 z4 |!f! C,4 C3 C | F,4 z2!p! F,2 | ^F,6 F,2 | G,2 A,2 B,2 G,2 | A,8 | D,4 z4 | %12
w: |||||||
 D,4"^cresc." G,3 G, | F,4 z4 |!f! C,4 C,3 F, | B,,4 z2!p! B,,2 | B,,4 B,,4 | B,,4 B,,2 B,,B,, | %18
w: ||||||
 B,,4 B,,2 B,,2 | !>!F,3 F, F,2 F,2 |"^cresc." B,,2 B,,2 B,,2 B,,2 |!>(! B,,3!>)! B,, B,,2 z2 | %22
w: ||||
!p! E,4!<(! F,3 F,!<)! | B,,2 z2 z4 |!f! E,4 F,3 F, | B,,4 z4 | z2!p! B,,2 B,,2 _D,2 | F,6 F,,2 | %28
w: ||||||
!<(! B,,2 B,,2 B,,!<)!C,_D,E, |!>(! F,3 F, F,2!>)! z2 | z2"^cresc." _D,2 D,2 F,2 | _A,4 B,2 C2 | %32
w: ||wenn ich an|mir selbst, an|
 _D4 _D,2 D,2 | _A,4 _A,,2 z2 |!f! _D,4 E,3 E, | F,4 z4 |!p! D,4 E,3 _A,, | _D,2!mf! _A,2 F,2 E,2 | %38
w: mir * *|||||* Gib dei- nen|
 _D,8- | D,6 _D,2 | _D,6 _D2 | B,4 B,2 B,2 | A,4 F,4 | B,4 z4 | z2!p! E,2 E,2 F,_G, | %45
w: Geist|_ zu|mei- nem|Lie- de, dass|rein es|sei,|dass rein es _|
 _A,2!<(! A,2 F,2 E,2!<)! |!mf! _D,8- | D,6 _D,2 | _D,6 _D2 | B,4 B,2 z2 |!f! =A,4 F,3 F, | %51
w: sei, und dass kein|Wort|_ mich|einst ver-|kla- ge,||
 B,4 z2 B,2 | _G,4 G,4 | F,4 z2!p! F,2 | F,4 =G,4 | =A,4 G,4 | F,4 F,4 |!>(! F,4!>)! F,2 z2 | %58
w: |||||||
!>(! C4!>)! A,3 G, | F,4 z4 | C,4 E,3 =E, | F,4 z4 |!f! A,4 _A,2 A,2 | _D4 _D,4 | %64
w: ||nichts kann ich|selbst,||* das|
 (_D,2 F,2 _A,2) B,C | _D4 _D,4 |!ff! F,4 _G,2 E,2 | _D,4 C,4 | B,,4 (_A,,2 _G,,2) | %69
w: |||||
 !fermata!F,,8 |!p! B,,4 B,,2 B,,2 | B,,4 z2 B,,2 | C,4 C,4 | F,4 F,2"^cresc." F,2 | B,,6 B,,2 | %75
w: ||||||
 B,,2 z!f! B, B,2 B,2 | A,2 A,2 A,2 A,2 | D4 D,!ff!DCB, | A,2 A,2 A,2 A,2 | A,,4 D,2 z2 | %80
w: |||||
!p!!<(! E,4 F,3!<)! F, |!f! B,,2 z2 z4 |!f! E,4 F,3 F, | B,,4 z4 |!pp! D,4 E,2 C,2 | B,,4 z2 F,,2 | %86
w: ||||||
 (D,2 F,2 E,2) C,2 | B,,2!<(! B,2 _A,2 G,2!<)! |!f! F,3 G, _A,2 F,2 |!>(! E,4!>)! E,2 z2 | %90
w: ||||
!f! C,4 F,3 ^F, | G,4 z4 | =E,8 |!pp! F,4 F,,4 | B,,2 z2 z4 | B,,4 F,,3 D, |"^<>" !fermata!B,,8 |] %97
w: ||sei|du mit|mir,|sei du mit|mir.|

